brandFactory_export/3.Masa/Tienda _3Masa.svg

<?xml version="1.0" encoding="UTF-8"?>
<svg width="24px" height="24px" viewBox="0 0 24 24" version="1.1" xmlns="http://www.w3.org/2000/svg" xmlns:xlink="http://www.w3.org/1999/xlink">
    <title>3.Masa/Tienda _3Masa</title>
    <g id="Symbols" stroke="none" stroke-width="1" fill="none" fill-rule="evenodd">
        <g id="3.Masa/Tienda-_3Masa" fill="#5CB615" fill-rule="nonzero">
            <path d="M17.287395,13.2773109 C18.0672269,13.7142857 19.0252101,13.9563025 20.0168067,13.9563025 C20.7932773,13.9563025 21.5092437,13.7983193 22.1445378,13.5462185 L22.1445378,21.6907563 C22.1445378,22.7563025 21.3277311,23.6235294 20.3260504,23.6235294 L14.9647059,23.6235294 L14.9647059,16.8504202 C14.9647059,16.0336134 14.3731092,15.3714286 13.6470588,15.3714286 L10.0033613,15.3714286 C9.27394958,15.3714286 8.68571429,16.0336134 8.68571429,16.8504202 L8.68571429,23.6235294 L3.29411765,23.6235294 C2.28907563,23.6235294 1.47563025,22.7563025 1.47563025,21.6907563 L1.47563025,13.5462185 C2.11092437,13.8016807 2.82689076,13.9563025 3.60336134,13.9563025 C4.60504202,13.9563025 5.5697479,13.7109244 6.34957983,13.2672269 C7.12941176,13.707563 8.09411765,13.9563025 9.09579832,13.9563025 C9.84201681,13.9563025 10.5781513,13.8184874 11.2336134,13.5596639 C11.4420168,13.4756303 11.6403361,13.3815126 11.8252101,13.2773109 C12.605042,13.7142857 13.5630252,13.9563025 14.5579832,13.9563025 C15.5529412,13.9563025 16.5109244,13.7142857 17.287395,13.2773109 L17.287395,13.2773109 Z M23.0084034,8.96470588 C23.4016807,9.36470588 23.6235294,9.87226891 23.6235294,10.4033613 C23.6235294,11.8420168 22.0403361,12.9714286 20.0201681,12.9714286 C18.9546218,12.9714286 17.9663866,12.6453782 17.2907563,12.0907563 C16.6184874,12.6453782 15.6268908,12.9714286 14.5579832,12.9714286 C13.492437,12.9714286 12.5042017,12.6453782 11.8285714,12.0907563 C11.5596639,12.312605 11.2336134,12.5008403 10.8705882,12.6453782 C10.3361345,12.8605042 9.7210084,12.9714286 9.09915966,12.9714286 C8.02352941,12.9714286 7.03193277,12.6453782 6.35294118,12.0773109 C5.68067227,12.6420168 4.68235294,12.9714286 3.60672269,12.9714286 C1.58655462,12.9714286 0.00336134454,11.8420168 0.00336134454,10.4033613 C0.00336134454,9.89243697 0.231932773,9.53277311 0.416806723,9.24369748 C0.490756303,9.12605042 0.568067227,9.00840336 0.625210084,8.87394958 C0.742857143,8.60168067 1.65378151,5.65378151 2.32268908,3.49915966 C2.65210084,2.43697479 2.95798319,1.4487395 3.16638655,0.786554622 C3.31428571,0.342857143 3.72436975,0.0470588235 4.18823529,0.043697479 L19.4252101,0 L19.4285714,0 C19.902521,0 20.312605,0.299159664 20.4571429,0.746218487 L21.9697479,5.54957983 C22.0302521,5.73445378 22.1210084,6.07058824 22.2285714,6.4605042 C22.4302521,7.19327731 22.8504202,8.71596639 23.0084034,8.96470588 L23.0084034,8.96470588 Z" id="Tienda-_3Masa"></path>
        </g>
    </g>
</svg>

<svg width="24" height="24" viewBox="0 0 24 24" xmlns="http://www.w3.org/2000/svg"><path d="M17.287 13.277c.78.437 1.738.68 2.73.68.776 0 1.492-.159 2.128-.41v8.144c0 1.065-.817 1.933-1.819 1.933h-5.361V16.85c0-.816-.592-1.479-1.318-1.479h-3.644c-.73 0-1.317.663-1.317 1.48v6.773H3.294c-1.005 0-1.818-.868-1.818-1.933v-8.145c.635.256 1.35.41 2.127.41 1.002 0 1.967-.245 2.747-.689.78.44 1.744.69 2.746.69.746 0 1.482-.139 2.138-.397a5.06 5.06 0 00.591-.283c.78.437 1.738.68 2.733.68.995 0 1.953-.243 2.73-.68zm5.721-4.312c.394.4.616.907.616 1.438 0 1.439-1.584 2.568-3.604 2.568-1.065 0-2.054-.326-2.73-.88-.672.554-1.663.88-2.732.88-1.066 0-2.054-.326-2.73-.88a3.6 3.6 0 01-.957.554 4.797 4.797 0 01-1.772.326c-1.075 0-2.067-.326-2.746-.894-.672.565-1.67.894-2.746.894-2.02 0-3.604-1.129-3.604-2.568 0-.51.229-.87.414-1.16.074-.117.151-.235.208-.37.118-.271 1.029-3.22 1.698-5.374.33-1.062.635-2.05.843-2.712.148-.444.558-.74 1.022-.743L19.425 0h.004c.474 0 .884.3 1.028.746L21.97 5.55c.06.184.151.52.259.91.201.733.621 2.256.78 2.505z" fill="#5CB615" fill-rule="nonzero"/></svg>
